Catalina-light/actions/22/love-amarok.svg

<svg xmlns="http://www.w3.org/2000/svg" viewBox="0 0 22 22">
  <defs id="defs3051">
    <style type="text/css" id="current-color-scheme">
      .ColorScheme-Text {
        color:#4d4d4d
      }
      </style>
  </defs>
 <path 
     style="fill:currentColor;fill-opacity:1;stroke:none"      
	 class="ColorScheme-Text"
        d="M 18.935552,4.2916761 C 18.061827,3.4303987 16.854517,3 15.313307,3 14.886861,3 14.451646,3.0751998 14.007951,3.2238393 13.564113,3.3726389 13.151346,3.5747183 12.769715,3.8279975 12.387828,4.0814368 12.059541,4.319356 11.784166,4.5415954 11.509047,4.7638347 11.24764,4.999994 11.000008,5.2499133 10.752265,4.999994 10.490842,4.7638347 10.215739,4.5415954 9.9404909,4.319356 9.6120599,4.0815968 9.2301739,3.8279975 8.8483029,3.5745583 8.4355199,3.3731189 7.9918089,3.2238393 7.5481305,3.0750398 7.1129158,3 6.6864371,3 5.1453697,3 3.9380485,3.4305587 3.0643392,4.2916761 2.1906458,5.1527935 1.7537991,6.34719 1.7537991,7.8749134 c 0,0.4652786 0.08096,0.9446371 0.2425593,1.4374357 0.1616155,0.4929585 0.3457749,0.9132769 0.5521103,1.2604759 0.2063194,0.347199 0.4402707,0.685758 0.7016939,1.015677 0.2614232,0.329919 0.4524307,0.557119 0.5727503,0.682238 0.1203196,0.1248 0.2149593,0.2152 0.2837271,0.270719 l 6.439267,6.270862 C 10.669747,18.93712 10.821154,19 11.000002,19 c 0.178831,0 0.330207,-0.0624 0.454078,-0.187519 l 6.429005,-6.250158 c 1.575419,-1.590075 2.363116,-3.1526302 2.363116,-4.6873936 0,-1.5276754 -0.43699,-2.7221679 -1.310684,-3.5832373 l 0,0 z"
     />
</svg>

<svg viewBox="0 0 22 22" xmlns="http://www.w3.org/2000/svg">
<defs>
<style id="current-color-scheme" type="text/css">.ColorScheme-Text {
        color:#363636
      }</style>
</defs>
<path class="ColorScheme-Text" d="m18.936 4.2917c-0.87372-0.86128-2.081-1.2917-3.6222-1.2917-0.42645 0-0.86166 0.0752-1.3054 0.22384-0.44384 0.1488-0.8566 0.35088-1.2382 0.60416-0.38189 0.25344-0.71017 0.49136-0.98555 0.7136-0.27512 0.22224-0.53653 0.4584-0.78416 0.70832-0.24774-0.24992-0.50917-0.48608-0.78427-0.70832-0.27525-0.22224-0.60368-0.46-0.98557-0.7136-0.38187-0.25344-0.79465-0.45488-1.2384-0.60416-0.44368-0.1488-0.87889-0.22384-1.3054-0.22384-1.5411 0-2.7484 0.43056-3.6221 1.2917-0.87369 0.86112-1.3105 2.0555-1.3105 3.5832 0 0.46528 0.08096 0.94464 0.24256 1.4374 0.16162 0.49296 0.34577 0.91328 0.55211 1.2605 0.20632 0.3472 0.44027 0.68576 0.70169 1.0157s0.45243 0.55712 0.57275 0.68224c0.12032 0.1248 0.21496 0.2152 0.28373 0.27072l6.4393 6.2709c0.12384 0.1248 0.27525 0.18768 0.4541 0.18768 0.17883 0 0.33021-0.0624 0.45408-0.18752l6.429-6.2502c1.5754-1.5901 2.3631-3.1526 2.3631-4.6874 0-1.5277-0.43699-2.7222-1.3107-3.5832z" fill="#363636"/>
</svg>
